X: 32
M: C
L: 1/8
K: D
vd2ud(vA d2)d2 | efed c2A2 | (Bc)dB (AB)A(F | G2)E2 E3(A |
d2)d(A d2)d2 | efed c2A2 | (Bc)dB (AG)FE | D2d2 d2z :||: (e |
f2)f(d fa)f(d | fg)a(g fe)d(f | e2)e(c e2)e(c | ef)e(d cA) A(g |
f2)f(d fa)f(d | fg)a(g fe)d(f | ef)g(f ed)cB | a2d2 d2z :|
fae a hole ida grund an he could hear da soond o dancin as weel.
still until he'd gottin da t\"un in his head.  Whin he got hame
he never guid ta bed until he wis able to play him upo da fiddle.
dis een wi da high bass, dat is, da back string set up ta A.


